!!!COM: des Prez, Josquin
!!!CDT: ~1450-1521/08/27
!!!OTL@@LAT: Salve regina
!!!AGN: Motet
!!!SCT: NJE 25.4
!!!SCA: New Josquin Edition 25.4
!!!voices: 4
**kern	**text	**kern	**text	**kern	**text	**kern	**text
*staff4	*	*staff3	*	*staff2	*	*staff1	*
*Ivox	*	*Ivox	*	*Ivox	*	*Ivox	*
*I"Bassus	*	*I"Tenor	*	*I"Altus	*	*I"Superius	*
*I'B	*	*I'T	*	*I'A	*	*I'S	*
*clefF4	*	*clefGv2	*	*clefG2	*	*clefG2	*
*k[]	*	*k[b-]	*	*k[]	*	*k[b-]	*
*M2/1	*	*M2/1	*	*M2/1	*	*M2/1	*
*met(C|)	*	*met(C|)	*	*met(C|)	*	*met(C|)	*
=1-	=1-	=1-	=1-	=1-	=1-	=1-	=1-
!	!	!	!	!	!	!LO:TX:Z=10:t=4-ex-2 canon (B-->T & A-->S, both at the upper 4th, 1 semibreve)	!
1A	Sal-	1r	.	0r	.	0r	.
1G	.	1d	Sal-	.	.	.	.
=2	=2	=2	=2	=2	=2	=2	=2
1A	.	1c	.	1r	.	0r	.
1D	-ve	1d	.	1a	Sal-	.	.
=3	=3	=3	=3	=3	=3	=3	=3
0r	.	1G	-ve	1g	.	1dd	Sal-
.	.	1r	.	1a	.	1cc	.
=4	=4	=4	=4	=4	=4	=4	=4
2r	.	1r	.	1d	-ve	1dd	.
2D\	re-	.	.	.	.	.	.
2E\	.	2r	.	1r	.	1g	-ve
2G\	.	2G/	re-	.	.	.	.
=5	=5	=5	=5	=5	=5	=5	=5
2.F\	-gi-	2A/	.	1a	re-	1r	.
.	.	2c\	.	.	.	.	.
4E\	.	.	.	.	.	.	.
1G	-na	2.B-\	-gi-	2.g/	-gi-	1dd	re-
.	.	4A/	.	4f/	.	.	.
=6	=6	=6	=6	=6	=6	=6	=6
1A	mi-	1c	-na	4e/	.	2.cc\	-gi-
.	.	.	.	4d/	.	.	.
.	.	.	.	2.f/	.	.	.
.	.	.	.	.	.	4b-\	.
1D	-se-	1d	mi-	.	.	4a/	.
.	.	.	.	4e/	.	4g/	.
.	.	.	.	[2d/	.	[2b-\	.
=7	=7	=7	=7	=7	=7	=7	=7
1E	-ri-	1G	-se-	2d/]	.	4b-\]	.
.	.	.	.	.	.	4a/	.
.	.	.	.	2c#i/	.	1g	.
1D	-cor-	1A	-ri-	1d	-na	.	.
.	.	.	.	.	.	2f#i/	.
=8	=8	=8	=8	=8	=8	=8	=8
1E	-di-	1G	-cor-	2r	.	1g	-na
.	.	.	.	2c/	mi-	.	.
1D	-e,	1A	-di-	2d/	-se-	2r	.
.	.	.	.	2f/	-ri-	2f/	mi-
=9	=9	=9	=9	=9	=9	=9	=9
2r	.	1G	-e,	2.e/	-cor-	2g/	-se-
2G\	mi-	.	.	.	.	2b-\	-ri-
.	.	.	.	4d/	.	.	.
2F\	-se-	2r	.	1f	.	2.a/	-cor-
2A\	-ri-	2c\	mi-	.	.	.	.
.	.	.	.	.	.	4g/	.
=10	=10	=10	=10	=10	=10	=10	=10
2G\	-cor-	2B-\	-se-	1g	.	1b-	.
2B-i\	.	2d\	-ri-	.	.	.	.
1A	-di-	2c\	-cor-	2.a/	.	1cc	.
.	.	2e-i\	.	.	.	.	.
.	.	.	.	4g/	.	.	.
=11	=11	=11	=11	=11	=11	=11	=11
2D\	.	1d	-di-	4f/	.	2.dd\	.
.	.	.	.	4e/	.	.	.
1G	.	.	.	2d/	.	.	.
.	.	.	.	.	.	4cc\	.
.	.	2G/	.	1g	.	4b-\	.
.	.	.	.	.	.	4a/	.
2E\	.	[2c\	.	.	.	2g/	.
=12	=12	=12	=12	=12	=12	=12	=12
1A	-e,	2c\]	.	2f/	.	1cc	.
.	.	2A/	.	2.e/	.	.	.
2r	.	1d	-e,	.	.	2b-\	.
.	.	.	.	4d/	.	.	.
2D\	sal-	.	.	[2d/	.	[2a/	.
=13	=13	=13	=13	=13	=13	=13	=13
1E	.	2r	.	2d/]	.	4a/]	.
.	.	.	.	.	.	4g/	.
.	.	2G/	sal-	2c#i/	-di-	1g	.
1D	-ve.	1A	.	1d	-e.	.	.
.	.	.	.	.	.	2f#i/	-di-
=14	=14	=14	=14	=14	=14	=14	=14
1r	.	1G	-ve.	0r	.	1g	-e.
1A	Vi-	1r	.	.	.	1r	.
=15	=15	=15	=15	=15	=15	=15	=15
1G	.	1d	Vi-	0r	.	0r	.
1A	.	1c	.	.	.	.	.
=16	=16	=16	=16	=16	=16	=16	=16
1D	-ta,	1d	.	1a	Vi-	1r	.
1r	.	1G	-ta,	1g	.	1dd	Vi-
=17	=17	=17	=17	=17	=17	=17	=17
1r	.	0r	.	1a	.	1cc	.
2r	.	.	.	1d	-ta,	1dd	.
2D\	dul-	.	.	.	.	.	.
=18	=18	=18	=18	=18	=18	=18	=18
2E\	-ce-	2r	.	1r	.	1g	-ta,
2G\	.	2G/	dul-	.	.	.	.
2.F\	.	2A/	.	1a	dul-	1r	.
.	.	2c\	.	.	.	.	.
4E\	.	.	.	.	.	.	.
=19	=19	=19	=19	=19	=19	=19	=19
1G	.	2.B-\	-ce-	2.g/	-ce-	1dd	dul-
.	.	4A/	.	4f/	.	.	.
1A	-do,	1c	.	4e/	.	2.cc\	-ce-
.	.	.	.	4d/	.	.	.
.	.	.	.	[2f/	.	.	.
.	.	.	.	.	.	4b-\	.
=20	=20	=20	=20	=20	=20	=20	=20
1D	dul-	1d	-do,	4f/]	.	4a/	.
.	.	.	.	4e/	.	4g/	.
.	.	.	.	1d	.	2.b-\	.
1E	-ce-	1G	.	.	.	.	.
.	.	.	.	.	.	4a/	.
.	.	.	.	2c#i/	.	[2g/	.
=21	=21	=21	=21	=21	=21	=21	=21
1D	.	1A	dul-	1d	-do,	2g/]	.
.	.	.	.	.	.	2f#i/	.
1E	.	1G	-ce-	2r	.	1g	-do,
.	.	.	.	2c/	et	.	.
=22	=22	=22	=22	=22	=22	=22	=22
1D	-do,	1A	.	2d/	spes	2r	.
.	.	.	.	2f/	nos-	2f/	et
2r	.	1G	-do,	2.e/	.	2g/	spes
2G\	et	.	.	.	.	2b-\	nos-
.	.	.	.	4d/	.	.	.
=23	=23	=23	=23	=23	=23	=23	=23
2F\	spes	2r	.	1f	.	2.a/	.
2A\	nos-	2c\	et	.	.	.	.
.	.	.	.	.	.	4g/	.
2G\	.	2B-\	spes	1g	-tra,	1b-	.
2B-i\	.	2d\	nos-	.	.	.	.
=24	=24	=24	=24	=24	=24	=24	=24
1A	.	2c\	.	2.a/	sal-	1cc	-tra,
.	.	2e-i\	.	.	.	.	.
.	.	.	.	4g/	.	.	.
2D\	.	1d	.	4f/	.	2.dd\	sal-
.	.	.	.	4e/	.	.	.
[2G\	.	.	.	2d/	.	.	.
.	.	.	.	.	.	4cc\	.
=25	=25	=25	=25	=25	=25	=25	=25
2G\]	.	2G/	.	1g	.	4b-\	.
.	.	.	.	.	.	4a/	.
2E\	.	1c	.	.	.	2g/	.
1A	-tra,	.	.	2f/	.	1cc	.
.	.	2A/	.	[2e/	.	.	.
=26	=26	=26	=26	=26	=26	=26	=26
2r	.	1d	-tra,	4e/]	.	2b-\	.
.	.	.	.	4d/	.	.	.
2D\	sal-	.	.	1d	.	2.a/	.
1E	.	2r	.	.	.	.	.
.	.	.	.	.	.	4g/	.
.	.	2G/	sal-	2c#i/	.	[2g/	.
=27	=27	=27	=27	=27	=27	=27	=27
1D	-ve.	1A	.	1d	-ve.	2g/]	.
.	.	.	.	.	.	2f#i/	.
1r	.	1G	-ve.	1r	.	1g	-ve.
=28	=28	=28	=28	=28	=28	=28	=28
0r	.	0r	.	1d	Ad	1r	.
.	.	.	.	1c	.	1g	Ad
=29	=29	=29	=29	=29	=29	=29	=29
2r	.	1r	.	2f/	te	1f	.
2F\	Ad	.	.	2a/	.	.	.
2G\	.	2r	.	2.g/	.	2b-\	te
2B-i\	.	2B-\	Ad	.	.	2dd\	.
.	.	.	.	4f/	.	.	.
=30	=30	=30	=30	=30	=30	=30	=30
1A	te	2c\	.	1a	.	2.cc\	.
.	.	2e-i\	.	.	.	.	.
.	.	.	.	.	.	4b-\	.
1D	.	1d	te	1r	.	1dd	.
=31	=31	=31	=31	=31	=31	=31	=31
2r	.	1G	.	2g/	cla-	1r	.
2G\	cla-	.	.	1g	-ma-	.	.
1A	-ma-	2r	.	.	.	2cc\	cla-
.	.	2c\	cla-	2f/	.	[2cc\	-ma-
=32	=32	=32	=32	=32	=32	=32	=32
1G	-mus,	1d	-ma-	1g	.	2cc\]	.
.	.	.	.	.	.	2b-\	.
1r	.	1c	-mus,	1a	.	1cc	.
=33	=33	=33	=33	=33	=33	=33	=33
1G	cla-	1r	.	2g/	.	1dd	.
.	.	.	.	2f/	.	.	.
1A	-ma-	1c	cla-	1e	-mus,	2cc\	.
.	.	.	.	.	.	2b-\	.
=34	=34	=34	=34	=34	=34	=34	=34
1D	-mus,	1d	-ma-	1r	.	1a	-mus,
1r	.	1G	-mus,	1g	ex-	1r	.
=35	=35	=35	=35	=35	=35	=35	=35
1r	.	0r	.	2f/	-u-	1cc	ex-
.	.	.	.	2e/	.	.	.
2r	.	.	.	2.d/	-les,	2b-\	-u-
2D\	ex-	.	.	.	.	2a/	.
.	.	.	.	8e/L	.	.	.
.	.	.	.	8f/J	.	.	.
=36	=36	=36	=36	=36	=36	=36	=36
2E\	-u-	2r	.	1g	.	2.g/	-les,
2G\	-	2G/	ex-	.	.	.	.
.	.	.	.	.	.	8a/L	.
.	.	.	.	.	.	8b-/J	.
2F\	-les	2A/	-u-	2r	.	1cc	.
2A\	.	2c\	.	2c/	fi-	.	.
=37	=37	=37	=37	=37	=37	=37	=37
2G\	fi-	2B-\	-les	2d/	-li-	2r	.
2D\	.	2d\	.	2f/	-e	2f/	fi-
2E\	.	2c\	fi-	2e/	E-	2g/	-li-
2G\	.	2G/	.	2d/	.	2b-\	-e
=38	=38	=38	=38	=38	=38	=38	=38
2F\	-li-	2A/	.	2f/	.	2a/	E-
2C/	-i	2c\	.	2.e/	.	2g/	.
1D	E-	2B-\	-li-	.	.	2b-\	.
.	.	.	.	4d/	.	.	.
.	.	2F/	-i	[2d/	.	[2a/	.
=39	=39	=39	=39	=39	=39	=39	=39
1E	.	1G	E-	2d/]	.	4a/]	.
.	.	.	.	.	.	4g/	.
.	.	.	.	2c#i/	.	1g	.
1D	-ve.	1A	.	1d	-ve.	.	.
.	.	.	.	.	.	2f#i/	.
=40	=40	=40	=40	=40	=40	=40	=40
0r	.	1G	-ve.	1r	.	1g	-ve.
.	.	1r	.	1d	Ad	1r	.
=41	=41	=41	=41	=41	=41	=41	=41
0r	.	0r	.	1c	.	1g	Ad
.	.	.	.	2f/	te	1f	.
.	.	.	.	2a/	.	.	.
=42	=42	=42	=42	=42	=42	=42	=42
1r	.	0r	.	2.g/	.	2b-\	te
.	.	.	.	.	.	2dd\	.
.	.	.	.	4f/	.	.	.
2r	.	.	.	1a	.	2.cc\	.
2A\	Ad	.	.	.	.	.	.
.	.	.	.	.	.	4b-\	.
=43	=43	=43	=43	=43	=43	=43	=43
1B	te	2r	.	1r	.	1dd	.
.	.	2d\	Ad	.	.	.	.
1A	.	1e	.	1cc	sus-	1r	.
=44	=44	=44	=44	=44	=44	=44	=44
1r	.	1d	te	2a/	-pi-	1ff	sus-
.	.	.	.	2.b\	-ra-	.	.
2r	.	1r	.	.	.	2dd\	-pi-
.	.	.	.	4a/	.	.	.
2A\	sus-	.	.	[2a/	.	[2ee\	-ra-
=45	=45	=45	=45	=45	=45	=45	=45
1B	-pi-	2r	.	2a/]	.	4ee\]	.
.	.	.	.	.	.	4dd\	.
.	.	2d\	sus-	2g#i/	.	1dd	.
1A	-ra-	1e	-pi-	1a	-mus,	.	.
.	.	.	.	.	.	2cc#i\	.
=46	=46	=46	=46	=46	=46	=46	=46
1D	-mus,	1d	-ra-	2r	.	1dd	-mus,
.	.	.	.	2d/	ge-	.	.
1r	.	1G	-mus,	2e/	-men-	2r	.
.	.	.	.	2g/	.	2g/	ge-
=47	=47	=47	=47	=47	=47	=47	=47
1r	.	0r	.	2.f/	.	2a/	-men-
.	.	.	.	.	.	2cc\	.
.	.	.	.	4e/	.	.	.
2r	.	.	.	1g	-tes	2.b-\	.
2G\	ge-	.	.	.	.	.	.
.	.	.	.	.	.	4a/	.
=48	=48	=48	=48	=48	=48	=48	=48
1A	-men-	2r	.	1r	.	1cc	-tes
.	.	2c\	ge-	.	.	.	.
1G	-tes	1d	-men-	1d	et	1r	.
=49	=49	=49	=49	=49	=49	=49	=49
1r	.	1c	-tes	1e	flen-	1g	et
2r	.	1r	.	1f	.	1a	.
2F\	et	.	.	.	.	.	.
=50	=50	=50	=50	=50	=50	=50	=50
1G	flen-	2r	.	2e/	.	1b-	flen-
.	.	2B-\	et	2.d/	.	.	.
1C	.	1c	flen-	.	.	2a/	.
.	.	.	.	4c/	.	.	.
.	.	.	.	[2c/	.	[2g/	.
=51	=51	=51	=51	=51	=51	=51	=51
1D	.	1F	.	2c/]	.	4g/]	.
.	.	.	.	.	.	4f/	.
.	.	.	.	2B/	.	1f	.
1C	-tes	1G	.	1c	-tes	.	.
.	.	.	.	.	.	2e/	.
=52	=52	=52	=52	=52	=52	=52	=52
1r	.	1F	-tes	2r	.	1f	-tes
.	.	.	.	2c/	in	.	.
2r	.	1r	.	1d	hac	2r	.
2D\	in	.	.	.	.	2f/	in
=53	=53	=53	=53	=53	=53	=53	=53
1E	hac	2r	.	1c	.	1g	hac
.	.	2G/	in	.	.	.	.
1D	.	1A	hac	2r	.	1f	.
.	.	.	.	2f/	la-	.	.
=54	=54	=54	=54	=54	=54	=54	=54
0r	.	1G	.	1g	-cri-	2r	.
.	.	.	.	.	.	2b-\	la-
.	.	1r	.	1a	-ma-	1cc	-cri-
=55	=55	=55	=55	=55	=55	=55	=55
2r	.	1r	.	2.g/	-rum	1dd	-ma-
2G\	la-	.	.	.	.	.	.
.	.	.	.	4f/	.	.	.
2A\	-cri-	2r	.	4e/	.	2.cc\	-rum
.	.	.	.	4d/	.	.	.
2A\	-ma-	2c\	la-	[2f/	val-	.	.
.	.	.	.	.	.	4b-\	.
=56	=56	=56	=56	=56	=56	=56	=56
1D	-rum	2d\	-cri-	4f/]	.	4a/	.
.	.	.	.	4e/	.	4g/	.
.	.	2d\	-ma-	1d	.	2.b-\	val-
1E	val-	1G	-rum	.	.	.	.
.	.	.	.	.	.	4a/	.
.	.	.	.	2c#i/	.	[2g/	.
=57	=57	=57	=57	=57	=57	=57	=57
1D	-le.	1A	val-	1d	-le.	2g/]	.
.	.	.	.	.	.	2f#i/	.
2r	.	1G	-le.	1r	.	1g	-le.
2G\	E-	.	.	.	.	.	.
=58	=58	=58	=58	=58	=58	=58	=58
1A	.	2r	.	1f	E-	1r	.
.	.	2c\	.	.	.	.	.
1G	-ia	1d	E-	1g	.	1b-	E-
=59	=59	=59	=59	=59	=59	=59	=59
1A	er-	1c	-ia	2f/	-ia	1cc	.
.	.	.	.	2a/	.	.	.
1B-i	.	1d	er-	2.g/	er-	2b-\	-ia
.	.	.	.	.	.	2dd\	.
.	.	.	.	4f/	.	.	.
=60	=60	=60	=60	=60	=60	=60	=60
1A	-go,	1e-i	.	1a	-go,	2.cc\	er-
.	.	.	.	.	.	4b-\	.
1d	ad-	1d	-go,	1r	.	1dd	-go,
=61	=61	=61	=61	=61	=61	=61	=61
1c	-vo-	1g	ad-	2r	.	1r	.
.	.	.	.	2cc\	ad-	.	.
1d	-ca-	1f	-vo-	2b\	-vo-	2r	.
.	.	.	.	2a/	-ca-	2ff\	ad-
=62	=62	=62	=62	=62	=62	=62	=62
2c\	.	1g	-ca-	2cc\	-ta	2ee\	-vo-
2G\	-ta	.	.	2.b\	nos-	2dd\	-ca-
1A	nos-	2f\	.	.	.	2ff\	-ta
.	.	.	.	4a/	.	.	.
.	.	2c\	-ta	[2a/	.	[2ee\	nos-
=63	=63	=63	=63	=63	=63	=63	=63
1B	.	1d	nos-	2a/]	.	4ee\]	.
.	.	.	.	.	.	4dd\	.
.	.	.	.	2g#i/	.	1dd	.
1A	.	1e	.	1a	-tra,	.	.
.	.	.	.	.	.	2cc#i\	.
=64	=64	=64	=64	=64	=64	=64	=64
1D	-tra,	1d	.	2r	.	1dd	-tra,
.	.	.	.	1dd	il-	.	.
1r	.	1G	-tra,	.	.	2r	.
.	.	.	.	2dd\	-los	[2gg\	il-
=65	=65	=65	=65	=65	=65	=65	=65
2r	.	1r	.	2cc\	tu-	2gg\]	.
2G\	il-	.	.	2.b\	.	2gg\	-los
1A	-los	2r	.	.	.	2ff\	tu-
.	.	.	.	4a/	.	.	.
.	.	2c\	il-	[2a/	.	[2ee\	.
=66	=66	=66	=66	=66	=66	=66	=66
1B	tu-	1d	-los	2a/]	.	4ee\]	.
.	.	.	.	.	.	4dd\	.
.	.	.	.	2g#i/	.	1dd	.
1A	-os	1e	tu-	1a	-os	.	.
.	.	.	.	.	.	2cc#i\	.
=67	=67	=67	=67	=67	=67	=67	=67
0r	.	1d	-os	2r	.	1dd	-os
.	.	.	.	1dd	mi-	.	.
.	.	1r	.	.	.	2r	.
.	.	.	.	2cc\	-se-	[2gg\	mi-
=68	=68	=68	=68	=68	=68	=68	=68
2r	.	1r	.	2b\	-ri-	2gg\]	.
2F\	mi-	.	.	2.a/	-cor-	2ff\	-se-
2G\	-se-	2r	.	.	.	2ee\	-ri-
.	.	.	.	4g/	.	.	.
2G\	-ri-	2B-\	mi-	[2g/	.	[2dd\	-cor-
=69	=69	=69	=69	=69	=69	=69	=69
1A	-cor-	2c\	-se-	2g/]	.	4dd\]	.
.	.	.	.	.	.	4cc\	.
.	.	2c\	-ri-	2f#i/	.	1cc	.
1G	-des	1d	-cor-	1g	-des	.	.
.	.	.	.	.	.	2bni\	.
=70	=70	=70	=70	=70	=70	=70	=70
0r	.	1c	-des	2r	.	1cc	-des
.	.	.	.	2c/	o-	.	.
.	.	1r	.	2d/	.	2r	.
.	.	.	.	2f/	.	2f/	o-
=71	=71	=71	=71	=71	=71	=71	=71
1r	.	0r	.	2e/	.	2g/	.
.	.	.	.	2.d/	-cu-	2b-\	.
2r	.	.	.	.	.	2a/	.
.	.	.	.	4c/	.	.	.
2C/	o-	.	.	[2c/	.	[2g/	-cu-
=72	=72	=72	=72	=72	=72	=72	=72
1D	-cu-	2r	.	2c/]	.	4g/]	.
.	.	.	.	.	.	4f/	.
.	.	2F/	o-	2B/	.	1f	.
1C	-los	1G	-cu-	1c	-los	.	.
.	.	.	.	.	.	2e/	.
=73	=73	=73	=73	=73	=73	=73	=73
0r	.	1F	-los	2r	.	1f	-los
.	.	.	.	2c/	ad	.	.
.	.	1r	.	2d/	nos	2r	.
.	.	.	.	2f/	.	2f/	ad
=74	=74	=74	=74	=74	=74	=74	=74
1r	.	0r	.	2e/	.	2g/	nos
.	.	.	.	2g/	con-	2b-\	.
2r	.	.	.	2f/	-ver-	2a/	.
2C/	ad	.	.	[2e/	.	2cc\	con-
=75	=75	=75	=75	=75	=75	=75	=75
2D\	nos	2r	.	4e/]	.	2b-\	-ver-
.	.	.	.	4d/	.	.	.
2D\	con-	2F/	ad	1d	.	2.a/	.
1E	-ver-	2G/	nos	.	.	.	.
.	.	.	.	.	.	4g/	.
.	.	2G/	con-	2c#i/	.	[2g/	.
=76	=76	=76	=76	=76	=76	=76	=76
1D	-te.	1A	-ver-	1d	-te.	2g/]	.
.	.	.	.	.	.	2f#i/	.
1r	.	1G	-te.	1r	.	1g	-te.
=77	=77	=77	=77	=77	=77	=77	=77
0r	.	0r	.	1A	Et	1r	.
.	.	.	.	2B/	Je-	1d	Et
.	.	.	.	2d/	.	.	.
=78	=78	=78	=78	=78	=78	=78	=78
1r	.	0r	.	2.c/	.	2e/	Je-
.	.	.	.	.	.	2g/	.
.	.	.	.	4B/	.	.	.
2r	.	.	.	1d	-sum,	2.f/	.
2D\	Et	.	.	.	.	.	.
.	.	.	.	.	.	4e/	.
=79	=79	=79	=79	=79	=79	=79	=79
1E	Je-	2r	.	2r	.	1g	-sum,
.	.	2G/	Et	2c/	be-	.	.
1D	-sum,	1A	Je-	2d/	.	2r	.
.	.	.	.	2f/	-ne-	2f/	be-
=80	=80	=80	=80	=80	=80	=80	=80
2r	.	1G	-sum,	2e/	-dic-	2g/	.
2BB/	be-	.	.	2.d/	.	2b-\	-ne-
1C	-ne-	2r	.	.	.	2a/	-dic-
.	.	.	.	4c/	.	.	.
.	.	2E/	be-	[2c/	.	[2g/	.
=81	=81	=81	=81	=81	=81	=81	=81
1D	-dic-	1F	-ne-	2c/]	.	4g/]	.
.	.	.	.	.	.	4f/	.
.	.	.	.	2B/	.	1f	.
1C	-tum	1G	-dic-	1c	-tum	.	.
.	.	.	.	.	.	2e/	.
=82	=82	=82	=82	=82	=82	=82	=82
2r	.	1F	-tum	1r	.	1f	-tum
2D\	fruc-	.	.	.	.	.	.
1E	-tum	2r	.	1g	fruc-	1r	.
.	.	2G/	fruc-	.	.	.	.
=83	=83	=83	=83	=83	=83	=83	=83
1F	.	1A	-tum	2f/	-tum	1cc	fruc-
.	.	.	.	2e/	.	.	.
1G	.	1B-	.	2.d/	ven-	2b-\	-tum
.	.	.	.	.	.	2a/	.
.	.	.	.	8e/L	.	.	.
.	.	.	.	8f/J	.	.	.
=84	=84	=84	=84	=84	=84	=84	=84
1r	.	1c	.	1g	.	2.g/	ven-
.	.	.	.	.	.	8a/L	.
.	.	.	.	.	.	8b-/J	.
2r	.	1r	.	2f/	-tris	1cc	.
2C/	ven-	.	.	[2e/	tu-	.	.
=85	=85	=85	=85	=85	=85	=85	=85
1D	-tris	2r	.	4e/]	.	2b-\	-tris
.	.	.	.	4d/	.	.	.
.	.	2F/	ven-	1d	.	2.a/	tu-
1E	tu-	1G	-tris	.	.	.	.
.	.	.	.	.	.	4g/	.
.	.	.	.	2c#i/	.	[2g/	.
=86	=86	=86	=86	=86	=86	=86	=86
1D	-i,	1A	tu-	1d	-i,	2g/]	.
.	.	.	.	.	.	2f#i/	.
1r	.	1G	-i,	1r	.	1g	-i,
=87	=87	=87	=87	=87	=87	=87	=87
1D	no-	1r	.	2d/	no-	1r	.
.	.	.	.	2f/	.	.	.
1G	.	1G	no-	2e/	.	2g/	no-
.	.	.	.	2g/	.	2b-\	.
=88	=88	=88	=88	=88	=88	=88	=88
1A	.	1c	.	2f/	.	2a/	.
.	.	.	.	2a/	.	2cc\	.
1B-i	.	1d	.	2.g/	.	2b-\	.
.	.	.	.	.	.	2dd\	.
.	.	.	.	4f/	.	.	.
=89	=89	=89	=89	=89	=89	=89	=89
1A	-bis	1e-i	.	1a	-bis	2.cc\	.
.	.	.	.	.	.	4b-\	.
2r	.	1d	-bis	2r	.	1dd	-bis
2F\	post	.	.	[2a/	post	.	.
=90	=90	=90	=90	=90	=90	=90	=90
1G	.	2r	.	4a/]	.	2r	.
.	.	.	.	4g/	.	.	.
.	.	2B-\	post	1g	.	2.dd\	post
1A	.	1c	.	.	.	.	.
.	.	.	.	.	.	4cc\	.
.	.	.	.	2f#i/	.	[2cc\	.
=91	=91	=91	=91	=91	=91	=91	=91
1G	hoc	1d	.	1g	hoc	2cc\]	.
.	.	.	.	.	.	2bni\	.
2r	.	1c	hoc	2r	.	1cc	hoc
2F\	ex-	.	.	2f/	ex-	.	.
=92	=92	=92	=92	=92	=92	=92	=92
1G	-i-	2r	.	2e/	-i-	2r	.
.	.	2B-\	ex-	2.d/	-li-	2b-\	ex-
1C	-li-	1c	-i-	.	.	2a/	-i-
.	.	.	.	4c/	.	.	.
.	.	.	.	[2c/	.	[2g/	-li-
=93	=93	=93	=93	=93	=93	=93	=93
1D	.	1F	-li-	2c/]	.	4g/]	.
.	.	.	.	.	.	4f/	.
.	.	.	.	2B/	.	1f	.
1C	-um	1G	.	1c	-um	.	.
.	.	.	.	.	.	2e/	.
=94	=94	=94	=94	=94	=94	=94	=94
1F	os-	1F	-um	2r	.	1f	-um
.	.	.	.	1f	os-	.	.
2D\	.	1B-	os-	.	.	2r	.
[2G\	-ten-	.	.	2d/	.	[2b-\	os-
=95	=95	=95	=95	=95	=95	=95	=95
2G\]	.	2G/	.	1g	.	2b-\]	.
2E\	.	1c	-ten-	.	.	2g/	.
1A	-de,	.	.	2f/	-ten-	1cc	.
.	.	2A/	.	[2e/	.	.	.
=96	=96	=96	=96	=96	=96	=96	=96
2r	.	1d	-de,	4e/]	.	2b-\	-ten-
.	.	.	.	4d/	.	.	.
2D\	os-	.	.	1d	.	2.a/	.
1E	-ten-	2r	.	.	.	.	.
.	.	.	.	.	.	4g/	.
.	.	2G/	os-	2c#i/	.	[2g/	.
=97	=97	=97	=97	=97	=97	=97	=97
1D	-de.	1A	-ten-	1d	-de.	2g/]	.
.	.	.	.	.	.	2f#i/	.
2r	.	1G	-de.	1r	.	1g	-de.
2G\	O	.	.	.	.	.	.
=98	=98	=98	=98	=98	=98	=98	=98
1A	cle-	2r	.	1a	O,	1r	.
.	.	2c\	O	.	.	.	.
1B	.	1d	cle-	1g	.	1dd	O,
=99	=99	=99	=99	=99	=99	=99	=99
1A	-mens,	1e	.	1a	.	1cc	.
1r	.	1d	-mens,	2r	.	1dd	.
.	.	.	.	2a/	O	.	.
=100	=100	=100	=100	=100	=100	=100	=100
0r	.	0r	.	1b	.	2r	.
.	.	.	.	.	.	2dd\	O
.	.	.	.	1cc	.	1ee	.
=101	=101	=101	=101	=101	=101	=101	=101
1r	.	0r	.	1dd	.	1ff	.
2r	.	.	.	2cc\	cle-	1gg	.
2G\	O	.	.	[2b\	.	.	.
=102	=102	=102	=102	=102	=102	=102	=102
1A	cle-	2r	.	4b\]	.	2ff\	cle-
.	.	.	.	4a/	.	.	.
.	.	2c\	O	1a	.	2.ee\	.
1B	.	1d	cle-	.	.	.	.
.	.	.	.	.	.	4dd\	.
.	.	.	.	2g#i/	.	[2dd\	.
=103	=103	=103	=103	=103	=103	=103	=103
1A	-mens.	1e	.	1a	-mens.	2dd\]	.
.	.	.	.	.	.	2cc#i\	.
2r	.	1d	-mens.	1r	.	1dd	-mens.
2G\	O	.	.	.	.	.	.
=104	=104	=104	=104	=104	=104	=104	=104
1A	pi-	2r	.	1a	O,	1r	.
.	.	2c\	O	.	.	.	.
1B	.	1d	pi-	1g	.	1dd	O,
=105	=105	=105	=105	=105	=105	=105	=105
1A	-a,	1e	.	1a	.	1cc	.
1r	.	1d	-a,	2r	.	1dd	.
.	.	.	.	2a/	O	.	.
=106	=106	=106	=106	=106	=106	=106	=106
0r	.	0r	.	1b	.	2r	.
.	.	.	.	.	.	2dd\	O
.	.	.	.	1cc	.	1ee	.
=107	=107	=107	=107	=107	=107	=107	=107
1r	.	0r	.	1dd	.	1ff	.
2r	.	.	.	2cc\	pi-	1gg	.
2G\	O	.	.	[2b\	.	.	.
=108	=108	=108	=108	=108	=108	=108	=108
1A	pi-	2r	.	4b\]	.	2ff\	pi-
.	.	.	.	4a/	.	.	.
.	.	2c\	O	1a	.	2.ee\	.
1B	.	1d	pi-	.	.	.	.
.	.	.	.	.	.	4dd\	.
.	.	.	.	2g#i/	.	[2dd\	.
=109	=109	=109	=109	=109	=109	=109	=109
1A	-a.	1e	.	1a	-a.	2dd\]	.
.	.	.	.	.	.	2cc#i\	.
2r	.	1d	-a.	1r	.	1dd	-a.
2G\	O	.	.	.	.	.	.
=110	=110	=110	=110	=110	=110	=110	=110
1A	dul-	2r	.	1a	O,	1r	.
.	.	2c\	O	.	.	.	.
1B	.	1d	dul-	1g	.	1dd	O,
=111	=111	=111	=111	=111	=111	=111	=111
1A	-cis,	1e	.	1a	.	1cc	.
2D\	O	1d	-cis,	2r	.	1dd	.
[2G\	dul-	.	.	2d/	O,	.	.
=112	=112	=112	=112	=112	=112	=112	=112
4G\]	.	2G/	O	1e	.	2r	.
4F\	.	.	.	.	.	.	.
4E\	.	2.c\	dul-	.	.	2g/	O,
4D\	.	.	.	.	.	.	.
2C/	.	.	.	2r	.	1a	.
.	.	4B-\	.	.	.	.	.
[2F\	.	4A/	.	2c/	O	.	.
.	.	4G/	.	.	.	.	.
=113	=113	=113	=113	=113	=113	=113	=113
2F\]	.	2F/	.	1f	.	2r	.
2D\	.	1B-	.	.	.	2f/	O
1G	-cis,	.	.	2e/	dul-	1b-	.
.	.	2G/	.	[2d/	.	.	.
=114	=114	=114	=114	=114	=114	=114	=114
2r	.	1c	-cis,	4d/]	.	2a/	dul-
.	.	.	.	4c/	.	.	.
2C/	O	.	.	1c	.	2.g/	.
1D	dul-	2r	.	.	.	.	.
.	.	.	.	.	.	4f/	.
.	.	2F/	O	2B/	.	[2f/	.
=115	=115	=115	=115	=115	=115	=115	=115
1C	-cis	1G	dul-	1c	-cis	2f/]	.
.	.	.	.	.	.	2e/	.
2r	.	1F	-cis	1r	.	1f	-cis
2F\	vir-	.	.	.	.	.	.
=116	=116	=116	=116	=116	=116	=116	=116
1G	.	2r	.	1g	vir	1r	.
.	.	2B-\	vir-	.	.	.	.
1A	.	1c	.	1f	.	1cc	vir
=117	=117	=117	=117	=117	=117	=117	=117
1B-i	-go,	1d	.	1g	-go,	1b-	.
1A	.	1e-i	-go,	1a	.	1cc	-go,
=118	=118	=118	=118	=118	=118	=118	=118
2r	.	1d	.	2r	.	1dd	.
2D\	vir-	.	.	1d	Ma-	.	.
1E	-go,	2r	.	.	.	2r	.
.	.	2G/	vir-	2c/	.	[2g/	Ma-
=119	=119	=119	=119	=119	=119	=119	=119
1D	.	1A	-go,	2d/	.	2g/]	.
.	.	.	.	2f/	.	2f/	.
2r	.	1G	.	2e/	.	2g/	.
2G\	vir-	.	.	2g/	.	2b-\	.
=120	=120	=120	=120	=120	=120	=120	=120
1A	-go	2r	.	2f/	.	2a/	.
.	.	2c\	vir-	2e/	.	2cc\	.
2G\	.	1d	-go	2g/	.	2b-\	.
2D\	Ma-	.	.	2f/	.	2a/	.
=121	=121	=121	=121	=121	=121	=121	=121
*M2/1	*	*	*	*	*	*	*
*met(3)	*	*	*	*	*	*	*
3.E\	-ri-	2c\	,	2e/	.	2cc\	.
6F\	.	2G/	Ma-	2d/	.	2b-\	.
3G\	.	.	.	.	.	.	.
*	*	*M2/1	*	*	*	*	*
*	*	*met(3)	*	*	*	*	*
3.F\	.	3.A/	-ri-	2f/	-ri-	2a/	.
6E\	.	6B-\	.	[2e/	.	2g/	.
3C/	.	3c\	.	.	.	.	.
=122	=122	=122	=122	=122	=122	=122	=122
*M2/1	*	*	*	*	*	*	*
*met(C|)	*	*	*	*	*	*	*
1D	.	3.B-\	.	4e/]	.	2b-\	.
.	.	.	.	4d/	.	.	.
.	.	6A/	.	1d	.	2.a/	-ri-
.	.	3F/	.	.	.	.	.
*	*	*M2/1	*	*	*	*	*
*	*	*met(C|)	*	*	*	*	*
1E	.	1G	.	.	.	.	.
.	.	.	.	.	.	4g/	.
.	.	.	.	2c#i/	.	[2g/	.
=123	=123	=123	=123	=123	=123	=123	=123
1D	-a,	1A	.	[0dl	-a.	2g/]	.
.	.	.	.	.	.	2f#i/	.
2r	.	1G	-a,	.	.	[1gl	-a.
2G\	Ma-	.	.	.	.	.	.
=124	=124	=124	=124	=124	=124	=124	=124
0G	-ri-	2r	.	0d_	.	0g_	.
.	.	2d\	Ma-	.	.	.	.
.	.	[1d	-ri-	.	.	.	.
=125	=125	=125	=125	=125	=125	=125	=125
0Gl	-a.	1d]	.	0d]	.	0g]	.
.	.	1dl	-a.	.	.	.	.
==	==	==	==	==	==	==	==
*-	*-	*-	*-	*-	*-	*-	*-
!!!RDF**kern: l=long note in original notation
!!!RDF**kern: i=editorial accidental
!!!ENC: Will Watson 06/07/2011
!!!END: 2011/06/07/
!!!EED: Jesse Rodin
!!!EEV: 2011/08/15/
!!attribution-level@Jos: 2 (provisionally attributable [parentheses checkmark])
!!!ONB: Translated from MusicXML and edited on 2011/08/15/ by Craig Sapp
!!muse2ps: C^@{COM}\n@{SCT}^i2I150v90,90,90,120c115z18l2700t130
